X: 33981
T: Reedy Creek
R: polka
M: 2/4
K: Gmajor
|:g2 fg|eg dg|G>A BG|dB A2|g2 fg|ag ed|Bg G>B|AG G2:|
BG B/c/d|gf ed|Bg G>B|AG ED|G3 A|BA B/c/d|eg G>B|AG G2:|

